public/images/twitter.svg

<svg width="20" height="15" viewBox="0 0 20 15" xmlns="http://www.w3.org/2000/svg"><title>Shape</title><path d="M17.317 3.722c.008.162.01.326.01.488 0 4.99-3.796 10.742-10.74 10.742-2.132 0-4.115-.625-5.786-1.697.297.035.597.053.9.053 1.77 0 3.398-.604 4.69-1.615-1.652-.03-3.047-1.12-3.527-2.62.23.042.467.065.71.065.345 0 .68-.045.995-.13C2.84 8.657 1.54 7.133 1.54 5.303v-.047c.51.283 1.092.453 1.71.473-1.013-.678-1.68-1.832-1.68-3.143 0-.69.186-1.34.512-1.898 1.86 2.284 4.644 3.786 7.78 3.944-.063-.277-.096-.564-.096-.86C9.766 1.688 11.456 0 13.54 0c1.086 0 2.067.457 2.756 1.19.86-.17 1.667-.483 2.397-.915-.282.88-.88 1.62-1.66 2.088.764-.092 1.49-.293 2.168-.594-.505.757-1.145 1.42-1.883 1.952z" fill="#3F3242" fill-rule="evenodd"/></svg>

<?xml version="1.0" encoding="UTF-8" standalone="no"?>
<svg width="25px" height="25px" viewBox="0 0 25 25" version="1.1" xmlns="http://www.w3.org/2000/svg" xmlns:xlink="http://www.w3.org/1999/xlink" xmlns:sketch="http://www.bohemiancoding.com/sketch/ns">
    <!-- Generator: Sketch 3.4.2 (15855) - http://www.bohemiancoding.com/sketch -->
    <title>twitter</title>
    <desc>Created with Sketch.</desc>
    <defs></defs>
    <g id="Page-1" stroke="none" stroke-width="1" fill="none" fill-rule="evenodd" sketch:type="MSPage">
        <g id="twitter" sketch:type="MSArtboardGroup" fill="#3F3242">
            <g sketch:type="MSLayerGroup" transform="translate(3.000000, 5.000000)" id="Shape">
                <g sketch:type="MSShapeGroup">
                    <path d="M17.317,3.722 C17.325,3.884 17.327,4.048 17.327,4.21 C17.327,9.2 13.531,14.952 6.587,14.952 C4.455,14.952 2.472,14.327 0.801,13.255 C1.098,13.29 1.398,13.308 1.701,13.308 C3.471,13.308 5.099,12.704 6.391,11.693 C4.739,11.663 3.344,10.573 2.864,9.073 C3.094,9.115 3.331,9.138 3.574,9.138 C3.919,9.138 4.254,9.093 4.569,9.008 C2.84,8.657 1.54,7.133 1.54,5.303 L1.54,5.256 C2.05,5.539 2.632,5.709 3.25,5.729 C2.237,5.051 1.57,3.897 1.57,2.586 C1.57,1.896 1.756,1.246 2.082,0.688 C3.942,2.972 6.726,4.474 9.862,4.632 C9.799,4.355 9.766,4.068 9.766,3.772 C9.766,1.688 11.456,0 13.54,0 C14.626,0 15.607,0.457 16.296,1.19 C17.156,1.02 17.963,0.707 18.693,0.275 C18.411,1.155 17.813,1.895 17.033,2.363 C17.797,2.271 18.523,2.07 19.201,1.769 C18.696,2.526 18.056,3.189 17.318,3.721 L17.317,3.722 Z"></path>
                </g>
            </g>
        </g>
    </g>
</svg>
